X:1
T:Precious Moments, 87.87 D
T:Precious Moments, 87.87 D
T:John Robson Sweney, 1909
T:Public Domain Courtesy of the Cyber Hymnal™
C:John Robson Sweney, 1909
Z:Public Domain
Z:Courtesy of the Cyber Hymnal™
%%score ( 1 2 ) ( 3 4 )
L:1/8
Q:1/4=110
M:4/4
K:G
V:1 treble 
V:2 treble 
V:3 bass 
V:4 bass 
V:1
 [B,G][CA] | [DB]2 [B,G]2 [CA]2 [DB]2 | [DA]4 D2 [DG][DA] | [GB]2 [DG]2 [DA]2 [DB]2 | %4
 [DA]6 [FA][GB] | [Ac]2 [FA]2 [GB]2 [Ac]2 | [Bd]4 [GB]2 [DG][GB] | [EA]2 [EA]2 [DF]2 [DF]2 | %8
 [DG]6 [DB][CA] | [B,G]4- [B,G][B,D][DG][DA] | [DB]2 [DB]4 [DB][Dc] | [Gd]2 [Ge]2 [Gd]2 [GB]2 | %12
 [FA]6 [FA][GB] | [Ac]4- [Ac][FA][GB][Ac] | [Bd]4 [GB]2 [DG][GB] | [EA]2 [EA]2 [DF]2 [DF]2 | %16
 [DG]6 |] %17
V:2
 x2 | x8 | x4 D2 x2 | x8 | x8 | x8 | x8 | x8 | x8 | x8 | x8 | x8 | x8 | x8 | x8 | x8 | x6 |] %17
V:3
 G,G, | G,2 G,2 [D,F,]2 [D,C]2 | [G,B,]4 [G,B,]2 [G,B,][G,C] | [G,D]2 [G,B,]2 [F,A,]2 G,2 | %4
 [D,F,]6 [D,D][D,D] | [D,D]2 [D,D]2 [D,D]2 [D,D]2 | [G,D]4 [G,D]2 [G,B,][G,D] | %7
 [C,C]2 [C,C]2 [D,C]2 [D,C]2 | [G,,G,B,]6 z2 | z2 [G,,D,][G,,D,] [G,,D,][G,,G,][B,,G,][D,F,] | %10
 G,2 G,4 G,[G,A,] | [G,B,]2 [G,C]2 [G,B,]2 [G,D]2 | [D,D]6 z2 | %13
 z2 [D,D][D,D] [D,D][D,D][D,D][D,D] | [G,D]4 [G,D]2 [G,B,][G,D] | [C,C]2 [C,C]2 [D,C]2 [D,C]2 | %16
 [G,B,]6 |] %17
V:4
 G,G, | G,2 G,2 x4 | x8 | x6 G,2 | x8 | x8 | x8 | x8 | x8 | x8 | G,2 G,4 G, x | x8 | x8 | x8 | x8 | %15
 x8 | x6 |] %17

